Sources/FrostedUI/Resources/Icons.xcassets/addUser20.imageset/add-user-20.svg

<svg width="20" height="20" viewBox="0 0 20 20" fill="none" xmlns="http://www.w3.org/2000/svg" data-fui-icon="true">
  <path
    d="M16 12.25C16.4142 12.25 16.75 12.5858 16.75 13V15.25H19C19.4142 15.25 19.75 15.5858 19.75 16C19.75 16.4142 19.4142 16.75 19 16.75H16.75V19C16.75 19.4142 16.4142 19.75 16 19.75C15.5858 19.75 15.25 19.4142 15.25 19V16.75H13C12.5858 16.75 12.25 16.4142 12.25 16C12.25 15.5858 12.5858 15.25 13 15.25H15.25V13C15.25 12.5858 15.5858 12.25 16 12.25ZM10 11C10.9584 11 11.8796 11.1531 12.7344 11.4346C13.1278 11.5641 13.3415 11.9884 13.2119 12.3818C13.0822 12.7748 12.6588 12.9887 12.2656 12.8594C11.5618 12.6276 10.7987 12.5 10 12.5C6.33103 12.5 3.5 15.1493 3.5 18.25C3.5 18.6642 3.16421 19 2.75 19C2.33579 19 2 18.6642 2 18.25C2 14.171 5.66085 11 10 11ZM10 1C12.4853 1 14.5 3.01472 14.5 5.5C14.5 7.98528 12.4853 10 10 10C7.51472 10 5.5 7.98528 5.5 5.5C5.5 3.01472 7.51472 1 10 1ZM10 2.5C8.34315 2.5 7 3.84315 7 5.5C7 7.15685 8.34315 8.5 10 8.5C11.6569 8.5 13 7.15685 13 5.5C13 3.84315 11.6569 2.5 10 2.5Z"
    fill="currentColor"
  />
</svg>

<svg xmlns="http://www.w3.org/2000/svg" width="20" height="20" fill="none" data-fui-icon="true" viewBox="0 0 20 20"><path fill="currentColor" d="M16 12.25a.75.75 0 0 1 .75.75v2.25H19a.75.75 0 0 1 0 1.5h-2.25V19a.75.75 0 0 1-1.5 0v-2.25H13a.75.75 0 0 1 0-1.5h2.25V13a.75.75 0 0 1 .75-.75M10 11c.958 0 1.88.153 2.734.435a.75.75 0 0 1-.468 1.424A7.2 7.2 0 0 0 10 12.5c-3.669 0-6.5 2.65-6.5 5.75a.75.75 0 0 1-1.5 0C2 14.171 5.66 11 10 11m0-10a4.5 4.5 0 1 1 0 9 4.5 4.5 0 0 1 0-9m0 1.5a3 3 0 1 0 0 6 3 3 0 0 0 0-6"/></svg>
